icons/1_Primary/Zerodha.svg

<svg width="1024" height="1024" viewBox="0 0 1024 1024" fill="none" xmlns="http://www.w3.org/2000/svg">
<g clip-path="url(#clip0_2_4033)">
<path d="M512 1024C794.77 1024 1024 794.77 1024 512C1024 229.23 794.77 0 512 0C229.23 0 0 229.23 0 512C0 794.77 229.23 1024 512 1024Z" fill="#728DBE"/>
<path d="M726.1 297.9V515C709.3 473.9 687.6 435.9 661.5 402C626.7 356.9 586.1 321.9 541.7 297.9H726.1ZM395.7 321C361.5 321 328.7 328.3 297.9 341.8V726.1H707.3C704.1 502 565.5 321 395.7 321Z" fill="white"/>
</g>
<defs>
<clipPath id="clip0_2_4033">
<rect width="1024" height="1024" fill="white"/>
</clipPath>
</defs>
</svg>

<svg width="1024" height="1024" fill="none" xmlns="http://www.w3.org/2000/svg"><g clip-path="url(#a)"><path d="M512 1024c282.77 0 512-229.23 512-512S794.77 0 512 0 0 229.23 0 512s229.23 512 512 512Z" fill="#728DBE"/><path d="M726.1 297.9V515c-16.8-41.1-38.5-79.1-64.6-113-34.8-45.1-75.4-80.1-119.8-104.1h184.4ZM395.7 321c-34.2 0-67 7.3-97.8 20.8v384.3h409.4C704.1 502 565.5 321 395.7 321Z" fill="#fff"/></g><defs><clipPath id="a"><path fill="#fff" d="M0 0h1024v1024H0z"/></clipPath></defs></svg>
